fs/folder_arrow_left_16_regular.svg

<svg viewBox="0 0 16 16" fill="none" xmlns="http://www.w3.org/2000/svg" height="1em" width="1em">
  <path d="M3 10V5.49887L5.75464 5.5C5.90343 5.50006 6.04452 5.43385 6.13956 5.31936L7.23479 4H11.9978C12.5501 4 12.9978 4.44772 12.9978 5V5.5986C13.3556 5.78128 13.6907 6.00198 13.9978 6.25537V5C13.9978 3.89543 13.1024 3 11.9978 3H7.17592L6.0679 2.11016C5.97913 2.03886 5.86868 2 5.75482 2H4C2.89543 2 2 2.89543 2 4V10C2 11.1046 2.89543 12 4 12H5.20703C5.11588 11.6777 5.05337 11.3434 5.02242 11H4C3.44772 11 3 10.5523 3 10ZM4 3H5.5789L6.29071 3.57165L5.52015 4.4999L3 4.49887V4C3 3.44772 3.44772 3 4 3ZM10.5 15C8.01472 15 6 12.9853 6 10.5C6 8.01472 8.01472 6 10.5 6C12.9853 6 15 8.01472 15 10.5C15 12.9853 12.9853 15 10.5 15ZM8.14684 10.146L8.14433 10.1486C8.09744 10.196 8.06198 10.2505 8.03794 10.3086C8.01385 10.3667 8.0004 10.4303 8.00001 10.497L8 10.5L8.00001 10.503C8.0004 10.5697 8.01385 10.6333 8.03794 10.6914C8.06234 10.7504 8.09851 10.8056 8.14645 10.8536L10.1464 12.8536C10.3417 13.0488 10.6583 13.0488 10.8536 12.8536C11.0488 12.6583 11.0488 12.3417 10.8536 12.1464L9.70711 11H12.5C12.7761 11 13 10.7761 13 10.5C13 10.2239 12.7761 10 12.5 10H9.70711L10.8536 8.85355C11.0488 8.65829 11.0488 8.34171 10.8536 8.14645C10.6583 7.95118 10.3417 7.95118 10.1464 8.14645L8.14684 10.146Z" fill="#212121"/>
</svg>

<svg viewBox="0 0 16 16" fill="none" xmlns="http://www.w3.org/2000/svg" height="1em" width="1em">
  <path d="M3 10V5.499l2.755.001a.5.5 0 0 0 .385-.18L7.235 4h4.763a1 1 0 0 1 1 1v.599c.358.182.693.403 1 .656V5a2 2 0 0 0-2-2H7.176l-1.108-.89A.5.5 0 0 0 5.755 2H4a2 2 0 0 0-2 2v6a2 2 0 0 0 2 2h1.207a5.48 5.48 0 0 1-.185-1H4a1 1 0 0 1-1-1Zm1-7h1.579l.712.572-.77.928L3 4.499V4a1 1 0 0 1 1-1Zm6.5 12a4.5 4.5 0 1 1 0-9 4.5 4.5 0 0 1 0 9Zm-2.353-4.854-.003.003a.498.498 0 0 0-.144.348v.006a.498.498 0 0 0 .146.35l2 2a.5.5 0 0 0 .708-.707L9.707 11H12.5a.5.5 0 0 0 0-1H9.707l1.147-1.146a.5.5 0 0 0-.708-.708l-2 2Z" fill="#212121"/>
</svg>
